X:780
T:Danse des Paysans, Bergen. [6]
T:peasant dance from the Bj\/orgvin Diocese, Norway
C:John Malchair's Third Collection of Tunes
F:https://www.vwml.org/record/Malchair/3619/p78
F:www.vwml.org/topics/historic-dance-and-tune-books/Malchair
Z:Eric Conrad Mar 2020
M:3/4
L:1/8
K:Cm
P:A
{=B,}C4 ga | gfed ec | f2 {g f } edec | e/d/c/=B/ {B}c4 :|
P:B
d2 d=Bdf | {d}e2 edec | d2 d=Bdf | e2 c2 cd/e/ |
d2 d=Bdf | {d}e2 edec | d2 d=Bdf | {d}e2 c2 z2 |]

